assets/icons/24px/stroke/rectangle-right-filled-24px.svg

<svg width="24" height="24" viewBox="0 0 24 24" fill="none" xmlns="http://www.w3.org/2000/svg">
<path fill-rule="evenodd" clip-rule="evenodd" d="M6.93548 4C6.95735 4 6.97929 4 7.0013 4L17.0645 4C17.9515 3.99995 18.7156 3.99991 19.3274 4.08214C19.9831 4.17025 20.6116 4.36895 21.1213 4.87868C21.631 5.38835 21.8297 6.0167 21.9179 6.67221C22.0001 7.28388 22.0001 8.0477 22 8.9342V15.0658C22.0001 15.9523 22.0001 16.7161 21.9179 17.3278C21.8297 17.9833 21.631 18.6117 21.1213 19.1213C20.6117 19.631 19.9833 19.8297 19.3278 19.9179C18.7161 20.0001 17.9523 20.0001 17.0658 20H6.93417C6.04769 20.0001 5.28387 20.0001 4.67221 19.9179C4.0167 19.8297 3.38835 19.631 2.87868 19.1213C2.36902 18.6117 2.17028 17.9833 2.08215 17.3278C1.99991 16.7161 1.99995 15.9523 2 15.0658L2 9C2 8.97799 2 8.95604 2 8.93417C1.99995 8.04769 1.99991 7.28387 2.08215 6.67221C2.17028 6.0167 2.36902 5.38835 2.87868 4.87868C3.38841 4.36895 4.01695 4.17025 4.67259 4.08214C5.28444 3.99991 6.04855 3.99995 6.93548 4ZM4.93898 6.06432C4.50493 6.12265 4.36895 6.21684 4.2929 6.2929C4.21677 6.36902 4.12263 6.50497 4.06431 6.93871C4.00213 7.40121 4 8.02893 4 9V15C4 15.9711 4.00213 16.5988 4.06431 17.0613C4.12263 17.495 4.21677 17.631 4.2929 17.7071C4.36902 17.7832 4.50497 17.8774 4.93871 17.9357C5.40121 17.9979 6.02893 18 7 18H17C17.9711 18 18.5988 17.9979 19.0613 17.9357C19.495 17.8774 19.631 17.7832 19.7071 17.7071C19.7832 17.631 19.8774 17.495 19.9357 17.0613C19.9979 16.5988 20 15.9711 20 15V9.00001C20 8.02893 19.9979 7.40122 19.9357 6.93871C19.8774 6.50497 19.7832 6.36902 19.7071 6.2929C19.6311 6.21684 19.4951 6.12265 19.061 6.06432C18.5983 6.00213 17.9702 6 16.9987 6H7.0013C6.0298 6 5.40174 6.00213 4.93898 6.06432Z" fill="white"/>
<path d="M21 15V9C21 7.11438 21 6.17157 20.4142 5.58579C19.8284 5 18.8856 5 17 5H12V19H17C18.8856 19 19.8284 19 20.4142 18.4142C21 17.8284 21 16.8856 21 15Z" fill="white"/>
</svg>

<svg width="24" height="24" fill="none" xmlns="http://www.w3.org/2000/svg"><path fill-rule="evenodd" clip-rule="evenodd" d="M6.935 4H17.064c.887 0 1.652 0 2.263.082.656.088 1.285.287 1.794.797.51.51.709 1.138.797 1.793C22 7.284 22 8.048 22 8.934v6.132c0 .886 0 1.65-.082 2.262-.088.655-.287 1.284-.797 1.793-.51.51-1.138.709-1.793.797-.612.082-1.376.082-2.262.082H6.934c-.886 0-1.65 0-2.262-.082-.655-.088-1.284-.287-1.793-.797-.51-.51-.709-1.138-.797-1.793C2 16.716 2 15.952 2 15.066V9v-.066c0-.886 0-1.65.082-2.262.088-.655.287-1.284.797-1.793.51-.51 1.138-.709 1.794-.797C5.284 4 6.049 4 6.935 4zM4.94 6.064c-.434.059-.57.153-.646.229-.076.076-.17.212-.229.646C4.002 7.4 4 8.029 4 9v6c0 .971.002 1.599.064 2.061.059.434.153.57.229.646.076.076.212.17.646.229C5.4 17.998 6.029 18 7 18h10c.971 0 1.599-.002 2.061-.064.434-.059.57-.153.646-.229.076-.076.17-.212.229-.646.062-.462.064-1.09.064-2.061V9c0-.971-.002-1.599-.064-2.061-.059-.434-.153-.57-.229-.646-.076-.076-.212-.17-.646-.229-.463-.062-1.09-.064-2.062-.064H7c-.971 0-1.6.002-2.062.064z" fill="#fff"/><path d="M21 15V9c0-1.886 0-2.828-.586-3.414C19.828 5 18.886 5 17 5h-5v14h5c1.886 0 2.828 0 3.414-.586C21 17.828 21 16.886 21 15z" fill="#fff"/></svg>
